icons/download-24.svg

<svg xmlns="http://www.w3.org/2000/svg" width="24" height="24" viewBox="0 0 24 24"><path d="M4.97 11.03a.75.75 0 111.06-1.06L11 14.94V2.75a.75.75 0 011.5 0v12.19l4.97-4.97a.75.75 0 111.06 1.06l-6.25 6.25a.75.75 0 01-1.06 0l-6.25-6.25zm-.22 9.47a.75.75 0 000 1.5h14.5a.75.75 0 000-1.5H4.75z"/></svg>

<svg xmlns="http://www.w3.org/2000/svg" width="24" height="24" viewBox="0 0 24 24">
  <defs/>
  <path d="M4.97,11.03 A0.75 0.75 0 1 1 6.03,9.97 L11,14.94 L11,2.75 A0.75 0.75 0 0 1 12.5,2.75 L12.5,14.94 L17.47,9.97 A0.75 0.75 0 1 1 18.53,11.03 L12.28,17.28 A0.75 0.75 0 0 1 11.22,17.28 L4.97,11.03 Z M4.75,20.5 A0.75 0.75 0 0 0 4.75,22 L19.25,22 A0.75 0.75 0 0 0 19.25,20.5 L4.75,20.5 Z"/>
</svg>
